dist/svg/container-cluster-o.svg

<svg width="16" height="16" viewBox="0 0 16 16" fill="rgb(34, 34, 34)" xmlns="http://www.w3.org/2000/svg"><title>container-cluster-o</title><g clip-path="url(#clip0_281_994)"><path d="M12.21 6.573V2.415L7.99498 0L3.77998 2.415V6.61L0.000976562 8.756V13.586L4.25398 16.001L8.02798 13.858L11.749 15.971L16.002 13.556V8.726L12.212 6.574L12.21 6.573ZM7.49498 5.126V8.182L4.77998 6.64V3.571L7.49498 5.126ZM8.49498 8.158V5.126L11.21 3.571V6.616L8.49498 8.158ZM6.94698 9.059L4.25298 10.589L1.53698 9.046L4.24298 7.509L6.94698 9.058V9.059ZM4.75198 11.468L7.49398 9.911V12.996L4.75198 14.553V11.467V11.468ZM8.50498 9.881L11.248 11.438V14.523L8.50498 12.966V9.881ZM11.748 10.559L9.07398 9.04L11.779 7.491L14.465 9.016L11.748 10.559ZM10.684 2.706L7.99498 4.247L5.30498 2.706L7.99398 1.165L10.683 2.706H10.684ZM0.999977 9.905L3.75198 11.468V14.553L0.999977 12.99V9.905ZM12.248 14.523V11.438L15 9.875V12.96L12.248 14.523Z" fill="rgb(34, 34, 34)" fill-opacity="1.00"/></g><defs><clipPath id="clip0_281_994"><rect width="16" height="16" fill="rgb(34, 34, 34)"/></clipPath></defs></svg>

<!-- Generated by Trend Micro Style Portal -->
<svg version="1.1" xmlns="http://www.w3.org/2000/svg" width="16" height="16" viewBox="0 0 16 16">
  <title>container-cluster-o</title>
  <path fill="rgb(34,34,34)" d="M12.21 6.573v-4.158l-4.215-2.415-4.215 2.415v4.195l-3.779 2.146v4.83l4.253 2.415 3.774-2.143 3.721 2.113 4.253-2.415v-4.83l-3.79-2.152zM7.495 5.126v3.056l-2.715-1.542v-3.069l2.715 1.556zM8.495 8.158v-3.032l2.715-1.555v3.045l-2.715 1.542zM6.947 9.059l-2.694 1.53-2.716-1.543 2.706-1.537 2.704 1.549zM4.752 11.468l2.742-1.557v3.085l-2.742 1.557v-3.086zM8.505 9.881l2.743 1.557v3.085l-2.743-1.557v-3.085zM11.748 10.559l-2.674-1.519 2.705-1.549 2.686 1.525-2.716 1.543zM10.684 2.706l-2.689 1.541-2.69-1.541 2.689-1.541 2.689 1.541zM1 9.905l2.752 1.563v3.085l-2.752-1.563v-3.085zM12.248 14.523v-3.085l2.752-1.563v3.085l-2.752 1.563z"></path>
</svg>
